X: 148
T: Cantantibus organis – Allegretto
C: Franciszek Walczyński
%%abc-version 2.0
%%abcx-abcm2ps-target-version 5.9.1 (29 Sep 2008)
%%abc-creator hum2abc beta
%%abcx-conversion-date 2021/10/04 07:38:38
%%abc-edited-by Andrzej Borzym
%%abc-edited-by Anastazja Marusiak
%%abcx-initial-encoding-date 2021-07-28
%%humdrum-veritas 3468267643
%%humdrum-veritas-data 3514603340
%%linebreak <none>
%%barnumbers 0
L: 1/8
M: 3/4
N: Derived from pl-kozmzk--mzk-m-346--050_walczynski-franciszek--cantantibus-organis-allegretto.krn
Q: "Allegretto."
%%staves {1 2}
V: 1 clef=treble
V: 2 clef=bass
K: Eb
[V:1] z6 | 
[V:2] C,D,E,G,A,G, | 
[V:1] z6 | 
[V:2] EDCA,G,F, | 
[V:1] CDEGAG | 
[V:2] E,D,C,2=B,,2 | 
[V:1] edcAGF | 
[V:2] C,D,E,F,G,=A,/=B,/ | 
[V:1] E=EF_EDC | 
[V:2] C_B,A,G,F,E, | 
[V:1] =B,6 | 
[V:2] D,A,G,F,E,D, | 
[V:1] CDEGAG | 
[V:2] C, zz2z2 | 
[V:1] edcAGF | 
[V:2] C,D,E,F,G,A, | 
[V:1] EDCED=B, | 
[V:2] G,2G,,2F,2 | 
[V:1] C4=B,2 | 
[V:2] E,D,C,E,D,G,, | 
[V:1] C6 | 
[V:2] A,,G,,F,,A,,G,,F,, | 
[V:1] C6- | 
[V:2] B,A,G,B,A,F, & =E,,4F,,A,, | 
[V:1] C6- | 
[V:2] [G,2=E,2][A,2F,2][F,2D,2] & [C,6C,,6]- | 
[V:1] !fermata!C6 |]  
[V:2] [G,6=E,6] & [C,6C,,6] |]  


